components/Icon/icons/javascript.svg

<svg width="50" height="50" viewBox="0 0 50 50" fill="none" xmlns="http://www.w3.org/2000/svg">
<path d="M0 0H50V50H0V0Z" fill="#F7DF1E"/>
<path d="M13.1469 41.7836L16.9731 39.468C17.7114 40.7768 18.3829 41.8842 19.9936 41.8842C21.5376 41.8842 22.5112 41.2803 22.5112 38.9311V22.9549H27.2098V38.9975C27.2098 43.8641 24.3571 46.0793 20.195 46.0793C16.4362 46.0793 14.2543 44.1326 13.1467 41.7832" fill="black"/>
<path d="M29.7619 41.28L33.5877 39.065C34.5949 40.7097 35.9039 41.9179 38.2195 41.9179C40.1666 41.9179 41.408 40.9445 41.408 39.6019C41.408 37.991 40.1326 37.4203 37.9846 36.4808L36.8102 35.9769C33.4201 34.5341 31.1715 32.7216 31.1715 28.8955C31.1715 25.3713 33.8564 22.6861 38.052 22.6861C41.0391 22.6861 43.1871 23.7267 44.7309 26.4453L41.0723 28.7949C40.2666 27.3517 39.3943 26.7812 38.0518 26.7812C36.6756 26.7812 35.8029 27.6539 35.8029 28.7949C35.8029 30.2045 36.6756 30.7754 38.6893 31.648L39.8639 32.1513C43.858 33.8632 46.1066 35.6084 46.1066 39.5349C46.1066 43.7642 42.784 46.0798 38.3201 46.0798C33.957 46.0798 31.1377 43.999 29.7617 41.2802" fill="black"/>
</svg>

<svg xmlns="http://www.w3.org/2000/svg" 
viewBox="0 0 50 50" width="100%" height="100%" fill="none"  xmlns:v="https://vecta.io/nano"><path d="M0 0H50V50H0V0Z" fill="#f7df1e"/><path d="M13.147 41.784l3.826-2.316c.738 1.309 1.41 2.416 3.021 2.416 1.544 0 2.518-.604 2.518-2.953V22.955h4.699v16.043c0 4.867-2.853 7.082-7.015 7.082-3.759 0-5.941-1.947-7.048-4.296m16.614-.504l3.826-2.215c1.007 1.645 2.316 2.853 4.632 2.853 1.947 0 3.189-.973 3.189-2.316 0-1.611-1.275-2.182-3.423-3.121l-1.174-.504c-3.39-1.443-5.639-3.255-5.639-7.081 0-3.524 2.685-6.209 6.88-6.209 2.987 0 5.135 1.041 6.679 3.759l-3.659 2.35c-.806-1.443-1.678-2.014-3.02-2.014-1.376 0-2.249.873-2.249 2.014 0 1.41.873 1.981 2.886 2.853l1.175.503c3.994 1.712 6.243 3.457 6.243 7.384 0 4.229-3.323 6.545-7.787 6.545-4.363 0-7.182-2.081-8.558-4.8" fill="#000"/></svg>
